X:1
T:Title
%%score { ( 1 4 ) | ( 2 3 ) }
L:1/8
M:4/4
K:Eb
V:1 treble nm="Grand Piano"
V:4 treble 
V:2 bass 
V:3 bass 
V:1
 z4 z2 z[Q:1/4=76] B, | EDEF G2 cB | BEDE [DA]3 [DA] | [Ad][DAB][DAc][DAd] [Ac] [GB]2 G | %4
 F=AGF [DB]3 B, | EDEF G2 cB | BGAB c3 c | dBc[Ad] [Ge]BGE | [EG][EG][DF][DF] E4 | Bcec B2 AG | %10
 FGBA [A,C]4 | D_D=D[DF] [Dc]2 [Fd]2 | B8 | Bcec B2 AG | FFGG A[F=A][FB][Fc] | %15
 [Fd][Ec][DB][Dc] [DG]2 [DF]2 |[M:7/8] [B,E]-[B,E]-[B,E]- [B,E]- [B,E]3 |] %17
V:2
 z4 z2 z [E,G,] | [E,G,B,][F,A,B,][G,B,][B,D] [E,B,E]2 [E,A,E][E,G,E] | %2
 [E,G,E][G,B,][F,A,B,][E,G,B,] [B,,F,]3 [B,,F,] | [B,,B,]B,,B,,B,, [E,E] [E,E]2 [E,B,E] | %4
 [F,=A,E][F,CE][F,B,E][F,A,E] [B,,B,]3 [D,_A,] | %5
 [E,G,B,][F,A,B,][G,B,][B,D] [E,B,E]2 [E,A,E][E,G,E] | %6
 [E,G,E][=E,B,_D][F,B,=D][K:treble][G,B,E] [A,E]3 [F,=A,F] | %7
 [B,F][A,B,D][K:bass][G,B,E][F,B,] [E,B,][E,G,E][E,B,E][C,=A,] | %8
 [B,,B,][B,,B,][B,,A,][B,,A,] [E,G,B,]4 | [E,G,E][E,A,E][E,CE][E,A,E] [E,G,E]2 [E,CE][E,B,E] | %10
 [CE][CE][A,C][A,C] F,E,D,C, | [B,,F,A,][B,,=E,A,][B,,F,A,][B,,A,] [B,,A,]2 [B,,A,]2 | %12
 [G,E]A,G,A, B,CB,A, | [E,G,E][E,A,E][E,CE][E,A,E] [E,G,E]2 [E,CE][E,B,E] | %14
 [A,CE][A,CE][G,C=E][G,CE] [F,CF][E,C][D,B,][C,=A,] | %15
 [B,,B,][B,,B,][B,,A,][B,,F,] [B,,B,]2 [B,,A,]2 |[M:7/8] [E,G,]-[E,G,]-[E,G,]- [E,G,]- [E,G,]3 |] %17
V:3
 x8 | x8 | x8 | x8 | x8 | x8 | x3[K:treble] x5 | x2[K:bass] x6 | x8 | x8 | A,2 F,2 z4 | x8 | E,8 | %13
 x8 | x8 | x8 |[M:7/8] x7 |] %17
V:4
 x8 | x8 | x8 | x8 | x8 | x8 | x8 | x8 | x8 | x8 | x8 | x8 | z FEF GAGF | x8 | x8 | x8 | %16
[M:7/8] x7 |] %17

